app/img/contact/ic_email_2.svg

<svg width="29" height="28" viewBox="0 0 29 28" fill="none" xmlns="http://www.w3.org/2000/svg">
    <path fill-rule="evenodd" clip-rule="evenodd"
          d="M1.98392 4.41088C2.03555 4.396 2.08892 4.3855 2.14317 4.37938C2.17292 4.37675 2.20267 4.37675 2.23242 4.375H26.7324C26.7622 4.37675 26.7919 4.37763 26.8217 4.37938L26.8278 4.38025C26.8558 4.38463 26.8829 4.38725 26.91 4.39337C26.9643 4.40475 27.0168 4.4205 27.0667 4.4415L27.0885 4.45025L27.1095 4.45988L27.1297 4.47038L27.1419 4.4765L27.1533 4.48263C27.1822 4.49838 27.2102 4.51587 27.2373 4.53512C27.2907 4.57275 27.3388 4.6165 27.3817 4.66375L27.3904 4.67425C27.4683 4.76262 27.5278 4.86675 27.5646 4.97963C27.5777 5.02075 27.5873 5.06188 27.5934 5.103C27.6013 5.145 27.6057 5.18875 27.6065 5.23163L27.6074 5.25V22.75V22.7509C27.6074 22.7596 27.6074 22.7684 27.6074 22.7771C27.6048 22.8541 27.5917 22.9303 27.5698 23.0029V23.0038V23.0046L27.5663 23.0143L27.5654 23.0177L27.5646 23.0204L27.5619 23.0274L27.5611 23.03V23.0317C27.5593 23.0361 27.5575 23.0405 27.5558 23.0449V23.0466C27.5278 23.1227 27.4902 23.1945 27.4429 23.2593L27.4421 23.261L27.4412 23.2619L27.4394 23.2645L27.4368 23.268L27.4342 23.2715L27.4324 23.2741L27.4315 23.2759L27.4298 23.2776L27.4263 23.2811L27.4237 23.2855L27.4228 23.2864V23.2872C27.316 23.4237 27.1699 23.5279 27.0028 23.5821C26.9958 23.5847 26.9897 23.5865 26.9827 23.5883C26.9634 23.5944 26.9433 23.5996 26.9232 23.604C26.861 23.618 26.7972 23.625 26.7333 23.625H26.7324H2.23242C2.18605 23.625 2.14054 23.6215 2.09592 23.6145C2.06179 23.6092 2.02854 23.6014 1.99617 23.5926C1.98479 23.5891 1.97342 23.5856 1.96204 23.5821C1.82292 23.5366 1.69779 23.4561 1.59804 23.3511C1.52804 23.2776 1.4703 23.1919 1.42917 23.0974C1.42392 23.0851 1.41867 23.0729 1.4143 23.0597L1.41342 23.0571L1.41167 23.0536L1.40992 23.0493V23.0475C1.40642 23.0387 1.40292 23.0291 1.40029 23.0204L1.39943 23.0186V23.0169L1.39505 23.0046V23.0038C1.37842 22.9478 1.36704 22.89 1.36092 22.8323C1.35829 22.8051 1.35742 22.778 1.35742 22.7509V22.75V5.25V5.24913C1.35742 5.2395 1.35743 5.22987 1.3583 5.22025C1.36005 5.15725 1.3688 5.096 1.38455 5.03563C1.38893 5.01725 1.39417 4.99888 1.40029 4.97963C1.43704 4.86588 1.49742 4.76175 1.57529 4.67337L1.57617 4.6725L1.57705 4.67163L1.5788 4.669L1.58055 4.66725C1.64355 4.59637 1.71879 4.53512 1.80367 4.487C1.83167 4.47125 1.86055 4.45725 1.88942 4.445L1.9008 4.44063L1.90167 4.43975L1.9043 4.43888L1.90779 4.438C1.92529 4.43012 1.94367 4.424 1.96204 4.41787L1.9673 4.41613H1.96817L1.97868 4.41262L1.98392 4.41088ZM17.9745 15.232C17.4924 15.6581 16.942 15.9976 16.3383 16.2251C15.668 16.478 14.9462 16.5909 14.2304 16.5568C13.5549 16.5244 12.8864 16.3608 12.2722 16.0764C11.811 15.862 11.3867 15.5811 11.0069 15.246C8.8448 17.5079 6.58905 19.6788 4.3578 21.875H24.5554C22.3259 19.698 20.1699 17.4449 17.9745 15.232ZM25.8574 7.37013C23.662 9.58563 21.4807 11.8169 19.2521 13.9983C21.5061 16.1534 23.669 18.4012 25.8574 20.6246V7.37013ZM9.74342 13.9991L3.10742 7.36225V20.573C5.2818 18.3453 7.53317 16.1919 9.74342 13.9991ZM17.3638 13.3814L24.6202 6.125H4.34467C6.72992 8.51025 9.07404 10.9366 11.4908 13.2878C11.5617 13.3385 11.6238 13.3989 11.6754 13.4671C11.8076 13.5957 11.9397 13.7235 12.0727 13.8513C12.1269 13.902 12.1829 13.9519 12.2398 14C12.5635 14.2677 12.9275 14.4778 13.3239 14.6169C14.191 14.9196 15.1658 14.8671 15.9953 14.4707C16.3541 14.2984 16.6769 14.0648 16.9595 13.7856L17.3638 13.3814Z"
          fill="#7CEA57"/>
</svg>

<svg width="29" height="28" fill="none" xmlns="http://www.w3.org/2000/svg"><path fill-rule="evenodd" clip-rule="evenodd" d="M1.984 4.41a.967.967 0 0 1 .16-.03c.029-.003.059-.003.088-.005h24.5l.09.004.006.001c.028.005.055.007.082.013a.856.856 0 0 1 .157.048l.021.01.021.009.02.01.013.006.011.007a.835.835 0 0 1 .229.18l.008.011a.87.87 0 0 1 .216.558l.001.018v17.527a.888.888 0 0 1-.037.226v.002l-.004.01v.003l-.001.002-.003.007v.005a.038.038 0 0 0-.006.013v.002a.87.87 0 0 1-.113.212v.002h-.002l-.002.004-.002.003-.003.003-.002.003v.002l-.002.002-.004.003-.002.005h-.001v.001a.88.88 0 0 1-.69.338h-24.5a.88.88 0 0 1-.237-.032l-.034-.01a.882.882 0 0 1-.533-.486l-.015-.037v-.003l-.002-.003-.002-.005v-.002a.35.35 0 0 1-.01-.027v-.003l-.005-.012v-.001a.96.96 0 0 1-.038-.253V5.25l.001-.03a.817.817 0 0 1 .042-.24.868.868 0 0 1 .175-.307h.001l.001-.001.002-.003.002-.002a.878.878 0 0 1 .308-.222l.012-.004V4.44l.003-.001.004-.001c.017-.008.036-.014.054-.02l.005-.002h.001l.01-.003.006-.002Zm15.99 10.822a5.288 5.288 0 0 1-1.636.993 5.278 5.278 0 0 1-4.066-.149 5.272 5.272 0 0 1-1.265-.83c-2.162 2.262-4.418 4.433-6.65 6.629h20.198c-2.23-2.177-4.385-4.43-6.58-6.643Zm7.883-7.862c-2.195 2.216-4.376 4.447-6.605 6.628 2.254 2.155 4.417 4.403 6.605 6.627V7.37ZM9.743 14 3.107 7.361v13.211c2.175-2.228 4.426-4.381 6.636-6.574Zm7.62-.619 7.257-7.256H4.345c2.385 2.385 4.729 4.812 7.146 7.163.07.05.133.11.184.18l.398.383a3.538 3.538 0 0 0 1.251.766 3.54 3.54 0 0 0 2.671-.146c.36-.173.682-.406.964-.685l.405-.405Z" fill="#7CEA57"/></svg>
